!!!COM: Gabriel Faure/
!!!CNT: Francais
!!!TXO: Francais
!!!OTL: Le Secret
!!!OPS: Op. 23
!!!ONM: No. 3
!!!LYR: Armand Silvestre
!!!ENC: Jacob Pegg
!!!YOR: Album of Twenty Songs (Vingt Me/lodies,) Volume II
!!!YOR: Edward B. Marks Music Corporation, RCA Building, Radio
!!!YOR: City, New York 20, N.Y.
!!!ODT: 1881/
!!NB: Vocal melody and text only encoded.
!!NB: First instance of melodic material only encoded.
**kern	**silbe
*clef G2	*
*k[b-]	*
*M2/4	*
*MM[adagio]	*
!! adagio, eighth = 69
!!created: 2/10/04 0:09
!!proofed and posted: 2/10/04 1:31
!!edit time: 24 min.
=1	=1
2r	.
=2	=2
4r	.
8r	.
{8cc	{Je
=3	=3
8.cc	veux
16cc	que
16bn	le
16a	ma-
16bn	-tin
16cc	l'i-
=4	=4
4f	-gno-
8g}	-re}
16r	.
{16cc	{Le
=5	=5
8cc	nom
16cc	que
16bn	j'ai
8a	dit
16bn	a\
16cc	la
=6	=6
4f}	nuit,}
{8.g	{Et
16g	qu'au
=7	=7
8a	vent
8a	de
8dd	l'au-
16ee	-be,
16ff	sans
=8	=8
4gg	bruit,
8gg	com-
16ff	-me u-
16ee	-ne
=9	=9
4ee	larme
8ee	il
16dd	s'e/-
16cc	-va-
=10	=10
4.cc	-po-
8cc}	-re.}
=11	=11
2r	.
=12	=12
4r	.
8r	.
16r	.
{16cc	{Je
=13	=13
8cc	veux
16cc	que
16dd	le
8ee-	jour
16ff	le
16gg	pro-
=14	=14
4ff	-cla-
8.cc}	-me,}
{16cc	{L'a-
=15	=15
8cc	-mour
16cc	qu'au
16dd-	ma-
8ee-	-tin
16dd-	j'ai
16cc	ca-
=16	=16
4b-}	-che/,}
{8b-	{Et
16cc	sur
16dd-	mon
=17	=17
16cc	coeur
16ee-	ou-
4ee-	-vert,
8dd	pen-
=18	=18
4gg	-che/,
16gg	com-
16gg	-me un
16ff	grain
16ee	d'en-
=19	=19
4.ee}	-cens,}
{16dd	{Il
16cc	l'en-
=20	=20
4.cc	-flam-
8cc}	-me.}
!!21-27 melodic equivalent of 4-10
=28	=28
4.r	.
{8cc	{Aux
=29	=29
8ff	plis
16ee	de
16dd	sa
8cc	ro-
16dd	-be
16ee	pa^-
=30	=30
(4a	-li-
4cc)	|
=31	=31
[2cc	-e!
=32	=32
4cc]}	|}
4r	.
*-	*-
